symbols/web/password/materialsymbolsrounded/password_wght500grad200_48px.svg

<svg xmlns="http://www.w3.org/2000/svg" height="48" width="48"><path d="M5.35 38.5q-.8 0-1.35-.6t-.55-1.35q0-.85.575-1.425.575-.575 1.375-.575h37.25q.8 0 1.35.575t.55 1.425q0 .75-.575 1.35-.575.6-1.375.6Zm-.8-13.6q-.5-.25-.675-.825Q3.7 23.5 4 23l1.2-2H2.85q-.55 0-.95-.4-.4-.4-.4-1 0-.55.425-.95.425-.4.975-.4h2.3L4.05 16.2q-.25-.45-.1-1.025t.55-.875q.5-.25 1.05-.1t.85.65l1.15 2.05 1.15-2.05q.3-.55.85-.7.55-.15 1.05.15.45.35.575.875.125.525-.125 1.025L9.9 18.25h2.35q.5 0 .925.4.425.4.425.95 0 .6-.425 1t-.925.4H9.9l1.2 2q.25.5.1 1.075t-.6.825q-.55.3-1.1.15t-.8-.7l-1.15-2-1.15 2q-.25.55-.8.675T4.55 24.9Zm16.4-.05q-.5-.3-.65-.85-.15-.55.15-1.05l1.2-2.05H19.3q-.55 0-.95-.4-.4-.4-.4-1 0-.5.4-.925.4-.425 1-.425h2.3L20.5 16.1q-.3-.45-.15-1t.6-.85q.5-.3 1.05-.125t.85.675L24 16.75l1.15-2q.3-.5.825-.65.525-.15 1.025.15.45.3.6.825.15.525-.1 1.025l-1.15 2.05h2.35q.5 0 .925.425.425.425.425.925 0 .6-.425 1t-.925.4h-2.35l1.2 2.05q.25.5.1 1.1-.15.6-.6.8-.55.3-1.125.15t-.825-.7L24 22.4l-1.1 1.9q-.25.5-.9.675-.65.175-1.05-.125Zm16.45 0q-.5-.3-.65-.85-.15-.55.15-1.05l1.2-2.05h-2.35q-.55 0-.95-.4-.4-.4-.4-1 0-.5.4-.925.4-.425 1-.425h2.3l-1.15-2.05q-.3-.45-.15-1t.65-.85q.5-.3 1.025-.15.525.15.825.65l1.15 2 1.15-1.95q.3-.55.8-.7.5-.15 1.05.15.45.3.575.825.125.525-.075 1.025l-1.15 2.05h2.35q.55 0 .95.425.4.425.4.925 0 .6-.4 1t-.95.4H42.8l1.2 2.05q.25.55.075 1.125t-.575.775q-.6.3-1.15.175-.55-.125-.8-.725l-1.1-1.9-1.1 1.9q-.3.5-.9.675-.6.175-1.05-.125Z"/></svg>

<svg xmlns="http://www.w3.org/2000/svg" height="48" width="48"><path d="M5.35 38.5Q4.55 38.5 4 37.9Q3.45 37.3 3.45 36.55Q3.45 35.7 4.025 35.125Q4.6 34.55 5.4 34.55H42.65Q43.45 34.55 44 35.125Q44.55 35.7 44.55 36.55Q44.55 37.3 43.975 37.9Q43.4 38.5 42.6 38.5ZM4.55 24.9Q4.05 24.65 3.875 24.075Q3.7 23.5 4 23L5.2 21H2.85Q2.3 21 1.9 20.6Q1.5 20.2 1.5 19.6Q1.5 19.05 1.925 18.65Q2.35 18.25 2.9 18.25H5.2L4.05 16.2Q3.8 15.75 3.95 15.175Q4.1 14.6 4.5 14.3Q5 14.05 5.55 14.2Q6.1 14.35 6.4 14.85L7.55 16.9L8.7 14.85Q9 14.3 9.55 14.15Q10.1 14 10.6 14.3Q11.05 14.65 11.175 15.175Q11.3 15.7 11.05 16.2L9.9 18.25H12.25Q12.75 18.25 13.175 18.65Q13.6 19.05 13.6 19.6Q13.6 20.2 13.175 20.6Q12.75 21 12.25 21H9.9L11.1 23Q11.35 23.5 11.2 24.075Q11.05 24.65 10.6 24.9Q10.05 25.2 9.5 25.05Q8.95 24.9 8.7 24.35L7.55 22.35L6.4 24.35Q6.15 24.9 5.6 25.025Q5.05 25.15 4.55 24.9ZM20.95 24.85Q20.45 24.55 20.3 24Q20.15 23.45 20.45 22.95L21.65 20.9H19.3Q18.75 20.9 18.35 20.5Q17.95 20.1 17.95 19.5Q17.95 19 18.35 18.575Q18.75 18.15 19.35 18.15H21.65L20.5 16.1Q20.2 15.65 20.35 15.1Q20.5 14.55 20.95 14.25Q21.45 13.95 22 14.125Q22.55 14.3 22.85 14.8L24 16.75L25.15 14.75Q25.45 14.25 25.975 14.1Q26.5 13.95 27 14.25Q27.45 14.55 27.6 15.075Q27.75 15.6 27.5 16.1L26.35 18.15H28.7Q29.2 18.15 29.625 18.575Q30.05 19 30.05 19.5Q30.05 20.1 29.625 20.5Q29.2 20.9 28.7 20.9H26.35L27.55 22.95Q27.8 23.45 27.65 24.05Q27.5 24.65 27.05 24.85Q26.5 25.15 25.925 25Q25.35 24.85 25.1 24.3L24 22.4L22.9 24.3Q22.65 24.8 22 24.975Q21.35 25.15 20.95 24.85ZM37.4 24.85Q36.9 24.55 36.75 24Q36.6 23.45 36.9 22.95L38.1 20.9H35.75Q35.2 20.9 34.8 20.5Q34.4 20.1 34.4 19.5Q34.4 19 34.8 18.575Q35.2 18.15 35.8 18.15H38.1L36.95 16.1Q36.65 15.65 36.8 15.1Q36.95 14.55 37.45 14.25Q37.95 13.95 38.475 14.1Q39 14.25 39.3 14.75L40.45 16.75L41.6 14.8Q41.9 14.25 42.4 14.1Q42.9 13.95 43.45 14.25Q43.9 14.55 44.025 15.075Q44.15 15.6 43.95 16.1L42.8 18.15H45.15Q45.7 18.15 46.1 18.575Q46.5 19 46.5 19.5Q46.5 20.1 46.1 20.5Q45.7 20.9 45.15 20.9H42.8L44 22.95Q44.25 23.5 44.075 24.075Q43.9 24.65 43.5 24.85Q42.9 25.15 42.35 25.025Q41.8 24.9 41.55 24.3L40.45 22.4L39.35 24.3Q39.05 24.8 38.45 24.975Q37.85 25.15 37.4 24.85Z"/></svg>
